telier/img/tel.svg

<svg width="12" height="12" viewBox="0 0 12 12" fill="none" xmlns="http://www.w3.org/2000/svg">
<path d="M1.27121 1.18113H3.92281L4.77749 3.31782L3.40449 4.23315C3.2402 4.34268 3.14152 4.52707 3.14152 4.72453C3.14301 4.77982 3.14152 4.72512 3.14152 4.72512L3.14152 4.72574L3.14152 4.72706L3.14154 4.73004L3.14163 4.73732C3.14171 4.74277 3.14186 4.74938 3.14211 4.75712C3.14261 4.7726 3.14351 4.79262 3.14513 4.81687C3.14836 4.86535 3.15445 4.93089 3.16591 5.01105C3.18879 5.17127 3.23322 5.39075 3.31946 5.64949C3.49264 6.16901 3.83291 6.84167 4.49562 7.50438C5.15833 8.16709 5.83099 8.50736 6.35051 8.68054C6.60925 8.76678 6.82873 8.81121 6.98895 8.8341C7.06911 8.84555 7.13465 8.85164 7.18313 8.85487C7.20738 8.85649 7.2274 8.85739 7.24288 8.85789C7.25062 8.85814 7.25723 8.85829 7.26268 8.85838L7.26996 8.85846L7.27294 8.85848L7.27426 8.85849H7.27488C7.27488 8.85849 7.34081 8.85487 7.27547 8.85849C7.49916 8.85849 7.70365 8.7321 7.80369 8.53203L8.19919 7.74103L10.8189 8.17764V10.7288C9.57213 10.9091 6.20502 11.0868 3.55911 8.44089C0.913197 5.79498 1.09091 2.42787 1.27121 1.18113ZM4.36614 5.01159L5.43266 4.30058C5.8974 3.99075 6.08158 3.39775 5.87414 2.87915L5.01947 0.74247C4.8401 0.294044 4.40578 0 3.92281 0H1.24035C0.703817 0 0.198777 0.372743 0.110698 0.954887C-0.0896871 2.27929 -0.362438 6.18972 2.72392 9.27608C5.81028 12.3624 9.72071 12.0897 11.0451 11.8893C11.6273 11.8012 12 11.2962 12 10.7596V8.17764C12 7.60026 11.5826 7.1075 11.013 7.01258L8.39337 6.57597C7.8819 6.49072 7.37465 6.74903 7.14276 7.21281L6.93813 7.62206C6.87381 7.60628 6.80202 7.58602 6.72402 7.56002C6.3577 7.43791 5.84923 7.18762 5.33081 6.6692C4.81238 6.15078 4.56209 5.6423 4.43998 5.27598C4.40699 5.17699 4.38323 5.08799 4.36614 5.01159Z" fill="#242424"/>
</svg>

<svg width="12" height="12" fill="none" xmlns="http://www.w3.org/2000/svg"><path d="M1.271 1.181h2.652l.854 2.137-1.373.915a.59.59 0 00-.262.492c.001.055 0 0 0 0v.012a1.134 1.134 0 00.003.08c.003.048.01.114.02.194.024.16.068.38.154.638.174.52.514 1.193 1.177 1.855.662.663 1.335 1.003 1.855 1.177.258.086.478.13.638.153a2.606 2.606 0 00.274.024h.011s.067-.003.001 0a.59.59 0 00.529-.326l.395-.791 2.62.437v2.55c-1.247.181-4.614.359-7.26-2.287S1.091 2.428 1.271 1.18zm3.095 3.83l1.067-.71c.464-.31.649-.903.441-1.422L5.02.742A1.181 1.181 0 003.923 0H1.24A1.13 1.13 0 00.11.955c-.2 1.324-.472 5.235 2.614 8.321 3.086 3.086 6.997 2.814 8.321 2.613A1.13 1.13 0 0012 10.76V8.179a1.18 1.18 0 00-.987-1.165l-2.62-.437a1.181 1.181 0 00-1.25.637l-.205.41a2.75 2.75 0 01-.214-.063c-.366-.122-.875-.372-1.393-.89-.519-.52-.769-1.028-.891-1.394a2.707 2.707 0 01-.074-.264z" fill="#242424"/></svg>
